packages/ffe-icons/icons/filled/md/more_up.svg

<svg xmlns="http://www.w3.org/2000/svg" height="24" viewBox="0 -960 960 960" width="24"><path d="M690.001-690.001h-320q-12.75 0-21.375-8.628-8.625-8.629-8.625-21.384 0-12.756 8.625-21.371 8.625-8.615 21.375-8.615h343.845q15.365 0 25.759 10.394t10.394 25.759v354.615q0 12.75-8.628 21.375-8.629 8.625-21.384 8.625-12.756 0-21.371-8.625-8.615-8.625-8.615-21.375v-330.77Zm-200 200h-320q-12.75 0-21.375-8.628-8.625-8.629-8.625-21.384 0-12.756 8.625-21.371 8.625-8.615 21.375-8.615h343.845q15.365 0 25.759 10.394t10.394 25.759v354.615q0 12.75-8.628 21.375-8.629 8.625-21.384 8.625-12.756 0-21.371-8.625-8.615-8.625-8.615-21.375v-330.77Z"/></svg>

<svg xmlns="http://www.w3.org/2000/svg" height="24" viewBox="0 -960 960 960" width="24"><path d="M690-690H370q-12.75 0-21.37-8.63-8.63-8.63-8.63-21.38 0-12.76 8.63-21.37Q357.25-750 370-750h343.85q15.36 0 25.76 10.39Q750-729.21 750-713.85v354.62q0 12.75-8.63 21.37-8.63 8.63-21.38 8.63-12.76 0-21.37-8.63-8.62-8.62-8.62-21.37V-690ZM490-490H170q-12.75 0-21.37-8.63-8.63-8.63-8.63-21.38 0-12.76 8.63-21.37Q157.25-550 170-550h343.85q15.36 0 25.76 10.39Q550-529.21 550-513.85v354.62q0 12.75-8.63 21.37-8.63 8.63-21.38 8.63-12.76 0-21.37-8.63-8.62-8.62-8.62-21.37V-490Z"/></svg>
